!!!!SEGMENT: Any1009c-Missa_Cueur_langoreulx-Credo--Montserrat_766.krn
!!!id: Any1009c
!!!SMS: Montserrat 766
!!!AGN: Mass; Credo
!!!voices: 3-5
!!!OPR: Missa Cueur langoreulx (Montserrat 766)
!!!COM: Anonymous
!!!OTL: Credo
**kern	**kern	**kern	**kern	**kern
*part5	*part4	*part3	*part2	*part1
*staff5	*staff4	*staff3	*staff2	*staff1
*I"Bassus	*I"Tenor II	*I"Tenor I	*I"Altus	*I"Superius
*I'B	*I'T. II	*I'T. I	*I'A	*I'S
*clefF4	*clefGv2	*clefGv2	*clefGv2	*clefG2
*k[]	*k[]	*k[]	*k[]	*k[]
*C:	*C:	*C:	*C:	*C:
*M2/1	*M2/1	*M2/1	*M2/1	*M2/1
*met(C|)	*met(C|)	*met(C|)	*met(C|)	*met(C|)
=1	=1	=1	=1	=1
!!section: Patrem
!!!OMD: Patrem
1D	1D	1A	1d	0r
2D	2F	2A	2d	.
2GG	2G	2B	2d	.
=2	=2	=2	=2	=2
2D	2F	2A	2d	0r
2D	2F	1A	2d	.
1BB	1D	.	1d	.
.	.	2G#i	.	.
=3	=3	=3	=3	=3
1.AA	0E	1A	0c	0r
.	.	2r	.	.
2AA	.	2A	.	.
=4	=4	=4	=4	=4
2AA	2r	2A	2r	0r
2AA	2E	2A	2c	.
1C	2E	2.G	2c	.
.	2E	.	2c	.
.	.	4A	.	.
=5	=5	=5	=5	=5
1GG	2D	4B	1d	0r
.	.	4c	.	.
.	2.G	2.d	.	.
2r	.	.	2G	.
.	4A	4c	.	.
2G	4B	4B	[2d	.
.	4c	4A	.	.
=6	=6	=6	=6	=6
2D	2B	1d	4d]	0r
.	.	.	4c	.
2F	1A	.	4B	.
.	.	.	4A	.
1E	.	1e	1B	.
.	2G#i	.	.	.
=7	=7	=7	=7	=7
1AA	1A	1c	0A	1.a
[1D	2r	2r	.	.
.	[2F	[2d	.	2a
=8	=8	=8	=8	=8
2D]	2F]	2d]	1r	1a
2D	2D	2d	.	.
2F	2A	2c	2r	1a
2F	2F	2d	2A	.
=9	=9	=9	=9	=9
0C	2E	2e	2.c	0g
.	1E	1c	.	.
.	.	.	4d	.
.	.	.	2e	.
.	2G	2c	2e	.
=10	=10	=10	=10	=10
2r	2F	2A	2f	2r
1C	2G	1c	2.e	1g
.	1E	.	.	.
.	.	.	4d	.
2C	.	2c	4c	2g
.	.	.	4B	.
=11	=11	=11	=11	=11
1.F	0r	2c	2A	1a
.	.	2A	1d	.
.	.	2A	.	2d
2F	.	2A	2c	[2a
=12	=12	=12	=12	=12
2D	0r	2.F	0d	4a]
.	.	.	.	4g
1D	.	.	.	4f
.	.	4G	.	4e
.	.	2A	.	1f
2D	.	2B	.	.
=13	=13	=13	=13	=13
2AA	2.A	2c	0r	0e
1AA	.	2A	.	.
.	4A	.	.	.
.	2A	2.c	.	.
2AA	2A	.	.	.
.	.	8BL	.	.
.	.	8AJ	.	.
=14	=14	=14	=14	=14
2C	2E	1G	0r	1r
2C	1G	.	.	.
2C	.	1c	.	2r
2C	2G	.	.	2e
=15	=15	=15	=15	=15
0GG	2G	1B	2r	2.g
.	1G	.	2G	.
.	.	.	.	4a
.	.	1r	2d	2b
.	2G	.	2d	2b
=16	=16	=16	=16	=16
0r	2A	0r	2c	2cc
.	2.G	.	1d	2.b
.	4F	.	.	4a
.	2G	.	2d	4g
.	.	.	.	4f
=17	=17	=17	=17	=17
0r	2A	0r	2c	2e
.	4G	.	4B	1a
.	4F	.	4A	.
.	1E	.	1B	.
.	.	.	.	2g#i
=18	=18	=18	=18	=18
1.D	1r	1r	1A	0a
.	[1A	1d	2r	.
2D	.	.	2d	.
=19	=19	=19	=19	=19
1D	2A]	2.d	1.f	0r
.	2A	.	.	.
.	.	8cL	.	.
.	.	8BJ	.	.
1D	2A	2A	.	.
.	2F	2B	2f	.
=20	=20	=20	=20	=20
2C	2G	2c	2e	0r
2D	2F	2A	2.f	.
4D	1D	2B	.	.
4C	.	.	4e	.
4BB	.	[2A	4d	.
4AA	.	.	4c	.
=21	=21	=21	=21	=21
1BB	1r	2A]	1d	2r
.	.	2G	.	2d
1AA	2r	1F	1c	2a
.	2A	.	.	2a
=22	=22	=22	=22	=22
2r	1c	1E	0r	2g
1AA	.	.	.	1a
.	[1c	2r	.	.
2AA	.	[2E	.	2a
=23	=23	=23	=23	=23
1C	2c]	4E]	0r	2g
.	.	4F	.	.
.	2c	1G	.	4f
.	.	.	.	4e
1D	2A	.	.	1f
.	2B	2F	.	.
=24	=24	=24	=24	=24
1C	2c	2G	1c	1e
.	1A	2E	.	.
1F	.	1D	1d	2r
.	4G	.	.	2a
.	4F	.	.	.
=25	=25	=25	=25	=25
2E	2G	2r	2e	1.cc
2F	2A	2A	2.c	.
1C	1E	2.c	.	.
.	.	.	4d	.
.	.	.	4e	2cc
.	.	8BL	4f	.
.	.	8AJ	.	.
=26	=26	=26	=26	=26
0r	0r	2G	2g	2b
.	.	1A	2.e	2.cc
.	.	.	4d	4b
.	.	2B	[2g	4a
.	.	.	.	4g
=27	=27	=27	=27	=27
1r	1r	2c	2g]	1a
.	.	2d	2f#i	.
1C	1c	1G	1g	1g
=28	=28	=28	=28	=28
2G	2B	0r	2r	0r
2G	2B	.	2d	.
[1G	[1B	.	2d	.
.	.	.	2d	.
=29	=29	=29	=29	=29
2G]	2B]	0r	1d	0r
2G	2G	.	.	.
2F	2A	.	2r	.
2D	2F	.	2d	.
=30	=30	=30	=30	=30
2E	1G	0r	2c	1g
1G	.	.	2B	.
.	1D	.	2A	1a
2F#i	.	.	2A	.
=31	=31	=31	=31	=31
0G	1G	1r	1G	2b
.	.	.	.	2.g
.	1E	2r	1r	.
.	.	.	.	4a
.	.	2G	.	4b
.	.	.	.	4cc
=32	=32	=32	=32	=32
0r	0D	2B	2r	2dd
.	.	2B	2d	2.b
.	.	2d	2d	.
.	.	.	.	4a
.	.	2d	2f	[2dd
=33	=33	=33	=33	=33
0r	1r	1A	2e	2dd]
.	.	.	2e	2cc#i
.	1D	1B	1d	1dd
=34	=34	=34	=34	=34
0r	2E	2G	0r	2r
.	2F	1d	.	1a
.	2F	.	.	.
.	2D	2d	.	2a
=35	=35	=35	=35	=35
2r	2D	0d	2r	1a
2D	2A	.	2f	.
2D	2A	.	2f	2a
2D	2F	.	2f	2a
=36	=36	=36	=36	=36
2E	2G	0r	2e	2g
2F	2A	.	2d	2f
2G	2B	.	2d	1e
2A	2c	.	2c#i	.
=37	=37	=37	=37	=37
0D	0A	2r	2d	1d
.	.	2D	2.f	.
.	.	2.F	.	1r
.	.	.	4e	.
.	.	.	2d	.
.	.	4G	.	.
=38	=38	=38	=38	=38
2r	0r	4A	2c	2r
.	.	4G	.	.
2D	.	4F	2d	2a
.	.	4E	.	.
2F	.	2D	1A	2a
2F	.	[2A	.	2cc
=39	=39	=39	=39	=39
1G	0r	2A]	2r	1b
.	.	1G	2d	.
1D	.	.	2d	1a
.	.	2F#i	2d	.
=40	=40	=40	=40	=40
2.G	2r	2G	1d	0r
.	2G	2B	.	.
4F	.	.	.	.
2E	2G	2c	1c	.
2F	2F	2A	.	.
=41	=41	=41	=41	=41
1C	1E	1G	2r	2r
.	.	.	2c	2cc
2r	2A	1r	2c	2cc
2F	2A	.	2c	2cc
=42	=42	=42	=42	=42
2D	2F	0r	1d	2b
2F	2D	.	.	1a
2G	2E	.	1B	.
2G	2E	.	.	2g
=43	=43	=43	=43	=43
2D	2.F	0r	0A	2a
2.A	.	.	.	2.cc
.	4G	.	.	.
.	4A	.	.	.
4G	4B	.	.	4b
2F	[2c	.	.	2a
=44	=44	=44	=44	=44
2E	2c]	0r	1r	2g
2D	2F	.	.	2a
1E	1G	.	1c	1e
=45	=45	=45	=45	=45
0D	0A	2r	2d	2r
.	.	1d	1f	2a
.	.	.	.	2a
.	.	2d	2f	2a
=46	=46	=46	=46	=46
0r	0r	1A	1f	1a
.	.	1c	2e	1g
.	.	.	2c	.
=47	=47	=47	=47	=47
2r	0r	2B	2d	2r
2C	.	2c	2c	2g
2G	.	2B	2d	2g
2E	.	[2c	2e	2g
=48	=48	=48	=48	=48
1F	1r	4c]	2d	1a
.	.	4B	.	.
.	.	4A	1c	.
.	.	4G	.	.
1D	2r	2A	.	1f
.	2D	2F	2B	.
=49	=49	=49	=49	=49
1C	2E	2r	0A	0e
.	2E	2G	.	.
2r	4C	2A	.	.
.	4D	.	.	.
[2C	4E	[2c	.	.
.	4F	.	.	.
=50	=50	=50	=50	=50
2C]	2G	2c]	0r	1r
2C	2A	2c	.	.
1E	1G	1B	.	1g
=51	=51	=51	=51	=51
1.F	2.c	0A	1r	2a
.	.	.	.	1cc
.	4c	.	.	.
.	2c	.	[1c	.
2F	2c	.	.	2cc
=52	=52	=52	=52	=52
2F	2A	0r	2c]	1cc
2A	2A	.	2c	.
2G	2B	.	2d	2b
2E	2c	.	2e	2g
=53	=53	=53	=53	=53
2D	0r	0r	2f	2a
2E	.	.	2e	2g
2F	.	.	2c	2a
2D	.	.	[2d	2b
=54	=54	=54	=54	=54
2F	1r	1r	4d]	2a
.	.	.	4c	.
2G	.	.	2B	1g
1D	2r	1d	1A	.
.	2A	.	.	2f#i
=55	=55	=55	=55	=55
0GG	2B	2d	1G	0g
.	2G	2d	.	.
.	2G	2d	2r	.
.	2G	2B	2g	.
=56	=56	=56	=56	=56
0r	1C	1c	2g	0r
.	.	.	2g	.
.	1D	1A	2g	.
.	.	.	2f#i	.
=57	=57	=57	=57	=57
0r	1E	1G	1g	1r
.	1C	2r	1e	[1g
.	.	[2G	.	.
=58	=58	=58	=58	=58
1GG	0D	2G]	0d	2g]
.	.	2G	.	2g
2D	.	2F	.	2a
2BB	.	2G	.	2b
=59	=59	=59	=59	=59
2AA	0r	2A	1r	2cc
1E	.	2G	.	2b
.	.	2E	2r	2g
2D	.	[2F	2d	[2a
=60	=60	=60	=60	=60
1D	0r	4F]	1d	4a]
.	.	4E	.	4g
.	.	4F	.	2f
.	.	4G	.	.
1r	.	1A	1c	1e
=61	=61	=61	=61	=61
2r	1A	1D	2d	1d
2D	.	.	1f	.
2D	2A	1r	.	2r
2D	[2A	.	4e	[2dd
.	.	.	4d	.
=62	=62	=62	=62	=62
1D	2A]	0r	1f	2dd]
.	2A	.	.	2dd
2AA	2A	.	1e	2dd
2AA	2A	.	.	2cc#i
=63	=63	=63	=63	=63
1BB	1D	0r	0d	2dd
.	.	.	.	2dd
1GG	2r	.	.	1b
.	2G	.	.	.
=64	=64	=64	=64	=64
2r	1F	2.A	2r	0a
2D	.	.	2f	.
.	.	4A	.	.
2D	2F	2A	2f	.
2D	2F	2A	2f	.
=65	=65	=65	=65	=65
2C	2G	2c	2e	1r
2GG	2G	2B	1d	.
1AA	1E	1A	.	2r
.	.	.	2c#i	2a
=66	=66	=66	=66	=66
1D	1D	1F	1d	1a
1r	1G	1E	1e	1g
=67	=67	=67	=67	=67
0AA	2E	0A	1c	2a
.	4F	.	.	1cc
.	4G	.	.	.
.	4A	.	2r	.
.	4B	.	.	.
.	[2c	.	2f	4b
.	.	.	.	4a
=68	=68	=68	=68	=68
1AA	4c]	1A	2e	1cc
.	4B	.	.	.
.	1A	.	2f	.
1E	.	2r	2g	1b
.	2G	2B	[2e	.
=69	=69	=69	=69	=69
2C	2E	2c	2e]	[0al
2D	2F	1A	1d	.
1AA	1E	.	.	.
.	.	2A	2c#i	.
=70	=70	=70	=70	=70
[0Dl	[0Dl	2.F	[0dl	0a_
.	.	8EL	.	.
.	.	8DJ	.	.
.	.	1A	.	.
=71	=71	=71	=71	=71
0D]	0D]	0Fl	0d]	0a]
=72||	=72||	=72||	=72||	=72||
*M2/1	*M2/1	*M2/1	*M2/1	*M2/1
*met(C|)	*met(C|)	*met(C|)	*met(C|)	*met(C|)
!!section: Et incarnatus
!!!OMD: Et incarnatus
0r	0r	0F	0r	0r
=73	=73	=73	=73	=73
0r	0r	1E	0c	0r
.	.	1F	.	.
=74	=74	=74	=74	=74
1r	0r	1.G	1B	0r
1C	.	.	1c	.
.	.	2G	.	.
=75	=75	=75	=75	=75
1BB	0r	1G	1d	0r
1C	.	1E	1e	.
=76	=76	=76	=76	=76
2D	0r	1F	1d	0f
2D	.	.	.	.
2D	.	2F	2r	.
2BB	.	2D	2d	.
=77	=77	=77	=77	=77
1C	0r	1G	2e	1e
.	.	.	1c	.
1F	.	1A	.	1f
.	.	.	2d	.
=78	=78	=78	=78	=78
1E	0r	2r	2.e	2g
.	.	2G	.	2g
.	.	.	8dL	.
.	.	.	8cJ	.
2r	.	2G	2B	2g
2E	.	2G	2c	2e
=79	=79	=79	=79	=79
2D	0r	2A	2d	2f
2C	.	2.c	1e	2g
1AA	.	.	.	2a
.	.	4B	.	.
.	.	2A	[2e	2cc
=80	=80	=80	=80	=80
2E	0r	2G	4e]	2b
.	.	.	4c	.
2F	.	2A	2d	1a
1E	.	1B	1e	.
.	.	.	.	2g#i
=81	=81	=81	=81	=81
1AA	0r	0A	1e	0a
2r	.	.	1f	.
2A	.	.	.	.
=82	=82	=82	=82	=82
2A	0r	0r	2e	0r
2A	.	.	2c	.
2D	.	.	2d	.
[2G	.	.	[2e	.
=83	=83	=83	=83	=83
4G]	0r	0r	4e]	1r
4F	.	.	4d	.
4E	.	.	1d	.
4D	.	.	.	.
1E	.	.	.	1e
.	.	.	2c#i	.
=84	=84	=84	=84	=84
1D	0r	1r	1d	1f
1AA	.	1A	1r	2e
.	.	.	.	2c
=85	=85	=85	=85	=85
1r	0r	1B	1r	1d
1AA	.	1A	1e	1e
=86	=86	=86	=86	=86
1D	0r	1F	1f	2d
.	.	.	.	2a
2C	.	2G	1e	2cc
[2AA	.	[2A	.	[2cc
=87	=87	=87	=87	=87
4AA]	0r	4A]	1c	4cc]
4BB	.	4G	.	4b
2C	.	1G	.	4g
.	.	.	.	4a
2BB	.	.	2d	2b
2C	.	4F	[2e	[2a
.	.	4E	.	.
=88	=88	=88	=88	=88
2D	0r	2F	4e]	2a]
.	.	.	4d	.
2BB	.	2G	1d	2g
1AA	.	1E	.	[1a
.	.	.	2c#i	.
=89	=89	=89	=89	=89
0D;	0r	0D;	0d;	0a;]
=90	=90	=90	=90	=90
0D	0r	0A	1r	0f
.	.	.	1d	.
=91	=91	=91	=91	=91
1C	0r	1A	1e	1e
1D	.	1A	1d	1f
=92	=92	=92	=92	=92
1E	0r	1G	1B	1g
2AA	.	2A	2c	2e
2AA	.	2A	2c	2e
=93	=93	=93	=93	=93
2BB	0r	2D	2B	2d
2AA	.	1A	2c	2e
1D	.	.	2d	2.f
.	.	[2A	[2f	.
.	.	.	.	8eL
.	.	.	.	8dJ
=94	=94	=94	=94	=94
0D	0r	4A]	4f]	0a
.	.	4G	4e	.
.	.	4F	4d	.
.	.	4E	4c	.
.	.	1F	1d	.
=95	=95	=95	=95	=95
2r	0r	0E	1e	1g
2G	.	.	.	.
2G	.	.	1r	2r
2G	.	.	.	2b
=96	=96	=96	=96	=96
1C	0r	2r	2r	2.cc
.	.	2G	2e	.
.	.	.	.	4b
2r	.	2A	2f	2a
2E	.	2B	2e	2g
=97	=97	=97	=97	=97
2.F	0r	2.A	2d	1a
.	.	.	2c	.
4E	.	4G	.	.
2D	.	2F	2d	2b
2C	.	2E	[2e	2cc
=98	=98	=98	=98	=98
1D	0r	2F	4e]	2a
.	.	.	4d	.
.	.	1A	1d	4g
.	.	.	.	4f
1E	.	.	.	1g
.	.	2G	2c#i	.
=99	=99	=99	=99	=99
1D	0r	1A	1d	2f
.	.	.	.	4d
.	.	.	.	4e
1r	.	1A	1r	4f
.	.	.	.	4g
.	.	.	.	[2a
=100	=100	=100	=100	=100
1E	0r	1B	0r	2a]
.	.	.	.	2g#i
1F	.	1A	.	1a
=101	=101	=101	=101	=101
1E	0r	2B	1e	1r
.	.	2c	.	.
1r	.	1d	1f	1a
=102	=102	=102	=102	=102
1E	0r	1G	1e	1b
1F	.	2r	2c	1a
.	.	2A	2d	.
=103	=103	=103	=103	=103
2E	0r	2B	1e	2r
2C	.	2c	.	2e
1D	.	2F	1d	1f
.	.	[2A	.	.
=104	=104	=104	=104	=104
1AA	0r	2A]	2c	2e
.	.	2A	2e	2c
2BB	.	2D	2d	2d
2C	.	[2G	2c	[2e
=105	=105	=105	=105	=105
2D	0r	4G]	2B	2e]
.	.	4F	.	.
2BB	.	4E	2G	1d
.	.	4D	.	.
1AA	.	1E	1A	.
.	.	.	.	2c#i
=106	=106	=106	=106	=106
0Dl	0r	0Dl	0Al	0dl
=107||	=107||	=107||	=107||	=107||
*M2/1	*M2/1	*M2/1	*M2/1	*M2/1
*met(C|)	*met(C|)	*met(C|)	*met(C|)	*met(C|)
!!section: Et resurrexit
!!!OMD: Et resurrexit
0r	1r	0r	1d	0r
.	1D	.	2d	.
.	.	.	2d	.
=108	=108	=108	=108	=108
0r	2D	0r	1d	1a
.	2D	.	.	.
.	1A	.	1c	2a
.	.	.	.	2a
=109	=109	=109	=109	=109
0r	1D	0r	2r	1a
.	.	.	2d	.
.	2r	.	2e	1g
.	2G	.	2e	.
=110	=110	=110	=110	=110
0r	2E	0r	2c	2r
.	2F	.	1d	2a
.	1G	.	.	2b
.	.	.	[2e	2b
=111	=111	=111	=111	=111
0r	2E	0r	4e]	2g
.	.	.	4d	.
.	1F	.	4c	2.a
.	.	.	4B	.
.	.	.	2A	.
.	.	.	.	4g
.	[2D	.	2d	4f
.	.	.	.	4e
=112	=112	=112	=112	=112
0r	4D]	0r	2d	2d
.	4E	.	.	.
.	4F	.	2d	2a
.	4G	.	.	.
.	2.A	.	2.c	2a
.	.	.	.	2a
.	4B	.	4d	.
=113	=113	=113	=113	=113
0r	2c	0r	1e	2g
.	1A	.	.	1cc
.	.	.	2c	.
.	4G	.	[2d	4b
.	4F	.	.	4a
=114	=114	=114	=114	=114
0r	2G	0r	4d]	2b
.	.	.	4c	.
.	2A	.	4B	1a
.	.	.	4A	.
.	1E	.	1B	.
.	.	.	.	2g#i
=115	=115	=115	=115	=115
0r	2r	0r	2A	0a
.	2A	.	2e	.
.	2A	.	2e	.
.	2A	.	2e	.
=116	=116	=116	=116	=116
0r	2c	0r	2e	2r
.	2c	.	2e	2a
.	1d	.	1f	2a
.	.	.	.	2a
=117	=117	=117	=117	=117
0r	2c	0r	0e	1.cc
.	2.A	.	.	.
.	4B	.	.	.
.	4c	.	.	2cc
.	4A	.	.	.
=118	=118	=118	=118	=118
0r	1B	0r	1r	1dd
.	[1A	.	2r	2cc
.	.	.	2c	[2a
=119	=119	=119	=119	=119
0r	1A]	0r	2c	4a]
.	.	.	.	4b
.	.	.	2c	4cc
.	.	.	.	4a
.	1r	.	2d	1b
.	.	.	2e	.
=120	=120	=120	=120	=120
0r	2r	0r	1f	1a
.	2A	.	.	.
.	2A	.	1e	2r
.	2A	.	.	2e
=121	=121	=121	=121	=121
0r	2.c	0r	2r	2e
.	.	.	2A	2e
.	4B	.	.	.
.	2A	.	2A	2f
.	2G	.	2B	2g
=122	=122	=122	=122	=122
0r	2F	0r	2.c	2a
.	2A	.	.	2f
.	.	.	4d	.
.	2G	.	2e	2g
.	2F	.	2A	[2a
=123	=123	=123	=123	=123
0r	1E	0r	2B	4a]
.	.	.	.	4g
.	.	.	2c	4g
.	.	.	.	8fL
.	.	.	.	8eJ
.	1D	.	1d	1f
=124	=124	=124	=124	=124
0r	0Al	0r	0cl	0el
=125||	=125||	=125||	=125||	=125||
*M2/1	*M2/1	*M2/1	*M2/1	*M2/1
*met(C|)	*met(C|)	*met(C|)	*met(C|)	*met(C|)
!!section: Et iterum
!!!OMD: Et iterum
1D	0r	0r	0r	0r
2D	.	.	.	.
2D	.	.	.	.
=126	=126	=126	=126	=126
1.C	0r	1G	0r	0r
.	.	2G	.	.
2C	.	2G	.	.
=127	=127	=127	=127	=127
1D	1d	1.F	0r	0r
1BB	2d	.	.	.
.	2d	2G	.	.
=128	=128	=128	=128	=128
0AA	1.c	2A	0r	0r
.	.	2F	.	.
.	.	1E	.	.
.	2c	.	.	.
=129	=129	=129	=129	=129
1r	1d	2r	0r	0r
.	.	2D	.	.
2r	1B	2.G	.	.
2GG	.	.	.	.
.	.	4G	.	.
=130	=130	=130	=130	=130
2.D	1A	2F	0r	0r
.	.	2D	.	.
4D	.	.	.	.
2C	2r	2E	.	.
2C	2G	2E	.	.
=131	=131	=131	=131	=131
2D	2.d	4D	0r	0r
.	.	4E	.	.
2BB	.	4F	.	.
.	4d	4G	.	.
1AA	2c	1A	.	.
.	2c	.	.	.
=132	=132	=132	=132	=132
1D	2d	2r	0r	0r
.	2B	2D	.	.
2r	1A	2F	.	.
2D	.	2F	.	.
=133	=133	=133	=133	=133
2F	2r	2D	0r	0r
2F	2d	2D	.	.
2D	2d	2F	.	.
2D	2d	2F	.	.
=134	=134	=134	=134	=134
2C	2e	2E	0r	0r
4AA	2c	2.A	.	.
4BB	.	.	.	.
4C	2c	.	.	.
4D	.	4F	.	.
[2E	2B	2G	.	.
=135	=135	=135	=135	=135
2E]	1A	2.F	0r	0r
1D	.	.	.	.
.	.	8EL	.	.
.	.	8DJ	.	.
.	2r	1E	.	.
2C#i	2e	.	.	.
=136	=136	=136	=136	=136
1D	2.f	2r	0r	0r
.	.	2A	.	.
.	4f	.	.	.
2r	2d	2B	.	.
2D	2d	2A	.	.
=137	=137	=137	=137	=137
1D	2f	1.A	0r	0r
.	2f	.	.	.
1D	1d	.	.	.
.	.	2G	.	.
=138	=138	=138	=138	=138
1.D	2r	2F	0r	0r
.	2A	4D	.	.
.	.	4E	.	.
.	2A	4F	.	.
.	.	4G	.	.
2C	2A	[2A	.	.
=139	=139	=139	=139	=139
2BB	1d	2A]	0r	0r
4AA	.	1G	.	.
4GG	.	.	.	.
1AA	1c	.	.	.
.	.	2F#i	.	.
=140	=140	=140	=140	=140
0GG	2B	1G	0r	0r
.	1d	.	.	.
.	.	2r	.	.
.	2d	[2G	.	.
=141	=141	=141	=141	=141
1r	1e	2G]	0r	0r
.	.	1c	.	.
2r	[1d	.	.	.
[2D	.	2B	.	.
=142	=142	=142	=142	=142
2D]	1d]	1A	0r	0r
2D	.	.	.	.
1E	2r	1G	.	.
.	2c	.	.	.
=143	=143	=143	=143	=143
1D	2d	2r	0r	0r
.	2d	2A	.	.
2r	1e	2c	.	.
2C	.	2c	.	.
=144	=144	=144	=144	=144
2D	1d	1A	0r	0r
2D	.	.	.	.
1E	2r	1G	.	.
.	2c	.	.	.
=145	=145	=145	=145	=145
1D	2d	2r	0r	0r
.	2d	2A	.	.
2r	1e	2c	.	.
2C	.	2c	.	.
=146	=146	=146	=146	=146
2D	1d	2A	0r	0r
2D	.	2B	.	.
1F	2r	1A	.	.
.	2c	.	.	.
=147	=147	=147	=147	=147
[0Dl	2d	[0Al	0r	0r
.	2d	.	.	.
.	1f	.	.	.
=148	=148	=148	=148	=148
0D]	0dl	0A]	0r	0r
=149||	=149||	=149||	=149||	=149||
*M2/1	*M2/1	*M2/1	*M2/1	*M2/1
*met(C|)	*met(C|)	*met(C|)	*met(C|)	*met(C|)
!!section: Et in Spiritum
!!!OMD: Et in Spiritum
0r	1.D	1.A	1.d	1.a
.	2D	2A	2d	2a
=150	=150	=150	=150	=150
0r	1D	1A	2d	2f
.	.	.	2d	1a
.	1F	1A	2c	.
.	.	.	[2c	4g
.	.	.	.	4f
=151	=151	=151	=151	=151
0r	2C	0G	2c]	2e
.	2.E	.	4B	2.g
.	.	.	4A	.
.	.	.	2G	.
.	4F	.	.	4f
.	[2G	.	[2B	2d
=152	=152	=152	=152	=152
0r	4G]	1r	4B]	2e
.	4F	.	4A	.
.	2D	.	1d	2f
.	1E	1G	.	1g
.	.	.	2c#i	.
=153	=153	=153	=153	=153
1.D	2D	1A	0d	1f
.	1A	.	.	.
.	.	2D	.	2r
2D	2D	[2A	.	[2f
=154	=154	=154	=154	=154
1D	2A	4A]	1r	4f]
.	.	4G	.	4e
.	2A	4F	.	4f
.	.	4E	.	4g
1D	1A	1F	1d	2a
.	.	.	.	2f
=155	=155	=155	=155	=155
0C	2.c	0E	1.e	2g
.	.	.	.	2g
.	4B	.	.	.
.	2A	.	.	2c
.	2G	.	2e	[2g
=156	=156	=156	=156	=156
1r	2r	0r	2d	4g]
.	.	.	.	4f
.	2G	.	2B	4e
.	.	.	.	4d
1C	2G	.	1c	1e
.	2G	.	.	.
=157	=157	=157	=157	=157
1D	2F	0r	1A	1d
.	2A	.	.	.
2GG	2G	.	2.d	2r
[2D	[2F	.	.	2a
.	.	.	4c	.
=158	=158	=158	=158	=158
4D]	4F]	0r	4B	2b
4C	4E	.	4A	.
4BB	1E	.	1A	2cc
4AA	.	.	.	.
1BB	.	.	.	1dd
.	2D	.	2G#i	.
=159	=159	=159	=159	=159
0AA	1E	0A	1A	1cc
.	2r	.	[1c	2a
.	2E	.	.	[2cc
=160	=160	=160	=160	=160
0r	1F	1A	2c]	4cc]
.	.	.	.	4b
.	.	.	2c	4a
.	.	.	.	4g
.	1D	1A	1d	1f
=161	=161	=161	=161	=161
0r	1E	0G	2B	1g
.	.	.	2c	.
.	2r	.	2B	2r
.	2E	.	2e	2g
=162	=162	=162	=162	=162
0r	2F	1r	2c	2a
.	2D	.	2d	2f
.	1E	1G	1B	1g
=163	=163	=163	=163	=163
0D	2F	2A	1A	2f
.	2D	2A	.	2.a
.	2.F	2D	1r	.
.	.	.	.	4g
.	.	[2A	.	4f
.	4G	.	.	4e
=164	=164	=164	=164	=164
1D	2A	4A]	2r	2d
.	.	4G	.	.
.	2D	4F	2d	2a
.	.	4E	.	.
1D	2r	1F	2d	2a
.	[2A	.	2d	2a
=165	=165	=165	=165	=165
0C	2A]	0E	1e	2cc
.	2G	.	.	2.cc
.	2A	.	1c	.
.	.	.	.	4b
.	[2c	.	.	2a
=166	=166	=166	=166	=166
1r	4c]	0r	1.c	2g
.	4B	.	.	.
.	2A	.	.	1f
1C	1G	.	.	.
.	.	.	2c	2e
=167	=167	=167	=167	=167
1D	2.F	0r	1A	1f
.	4D	.	.	.
2GG	2E	.	1r	1r
[2D	[2F	.	.	.
=168	=168	=168	=168	=168
4D]	4F]	0r	1r	0r
4C	4D	.	.	.
4BB	1A	.	.	.
4AA	.	.	.	.
1BB	.	.	1d	.
.	2G#i	.	.	.
=169	=169	=169	=169	=169
0AA	1A	2.A	1c	2r
.	.	.	.	1a
.	.	4B	.	.
.	1r	4c	2.A	.
.	.	4d	.	.
.	.	[2e	.	2a
.	.	.	4B	.
=170	=170	=170	=170	=170
0r	0r	2e]	2c	2g
.	.	1d	2d	2f
.	.	.	1A	1e
.	.	2c#i	.	.
=171	=171	=171	=171	=171
0r	1D	2d	2r	1d
.	.	4A	2A	.
.	.	4B	.	.
.	2.A	4c	2A	1r
.	.	4d	.	.
.	.	[2e	2c	.
.	4A	.	.	.
=172	=172	=172	=172	=172
0r	2G	2e]	2B	0r
.	2F	1d	1A	.
.	1E	.	.	.
.	.	2c#i	2G	.
=173	=173	=173	=173	=173
2.D	1D	0d	2A	0r
.	.	.	2B	.
4E	.	.	.	.
4F	2r	.	2A	.
4G	.	.	.	.
[2A	2D	.	[2d	.
=174	=174	=174	=174	=174
2A]	2F	0r	2d]	0r
1G	2E	.	1c	.
.	1D	.	.	.
2F	.	.	2B	.
=175	=175	=175	=175	=175
2G	2C	0r	2c	0r
4D	2F	.	1d	.
4E	.	.	.	.
4F	2.D	.	.	.
4G	.	.	.	.
[2A	.	.	2d	.
.	4E	.	.	.
=176	=176	=176	=176	=176
4A]	2F	0r	2c	1r
4G	.	.	.	.
1G	2G	.	2B	.
.	1D	.	1A	1a
2F#i	.	.	.	.
=177	=177	=177	=177	=177
0G	2r	1r	1G	2b
.	1G	.	.	2.dd
.	.	1d	1r	.
.	.	.	.	4cc
.	2G	.	.	4b
.	.	.	.	4a
=178	=178	=178	=178	=178
0r	2G	1d	2r	2b
.	2F	.	2d	2a
.	1D	1d	1f	2a
.	.	.	.	2a
=179	=179	=179	=179	=179
0r	0r	1.d	2f	2.dd
.	.	.	2f	.
.	.	.	.	4cc
.	.	.	2f	2b
.	.	2c	[2e	[2a
=180	=180	=180	=180	=180
0r	0r	2B	4e]	4a]
.	.	.	4d	4g
.	.	2G	1d	1g
.	.	1A	.	.
.	.	.	2c	2f#i
=181	=181	=181	=181	=181
1r	2r	0G	1d	[0g
.	2d	.	.	.
1G	2d	.	1B	.
.	2d	.	.	.
=182	=182	=182	=182	=182
1G	1.d	0r	0r	0g]
1G	.	.	.	.
.	2c	.	.	.
=183	=183	=183	=183	=183
1.G	2B	0r	0r	0r
.	4G	.	.	.
.	4A	.	.	.
.	4B	.	.	.
.	4c	.	.	.
2F	[2d	.	.	.
=184	=184	=184	=184	=184
2E	4d]	0r	1r	0r
.	4c	.	.	.
2C	1c	.	.	.
2D	.	.	1d	.
2D	2B	.	.	.
=185	=185	=185	=185	=185
0C	0c	1r	1.e	1g
.	.	1G	.	2e
.	.	.	2e	2e
=186	=186	=186	=186	=186
0r	0r	1A	1e	2c
.	.	.	.	1cc
.	.	1A	1c	.
.	.	.	.	4b
.	.	.	.	4a
=187	=187	=187	=187	=187
0r	0r	1G	2d	2b
.	.	.	2e	1cc
.	.	1G	2.d	.
.	.	.	.	2b
.	.	.	8cL	.
.	.	.	8BJ	.
=188	=188	=188	=188	=188
0r	0r	1.c	2.A	2.cc
.	.	.	4G	4b
.	.	.	2A	2a
.	.	2B	2B	[2g
=189	=189	=189	=189	=189
1r	0r	1A	0c	4g]
.	.	.	.	4f
.	.	.	.	1f
1C	.	1G	.	.
.	.	.	.	2e
=190	=190	=190	=190	=190
1D	1r	2.F	1A	1f
.	.	4E	.	.
1D	1A	1F	1d	1r
=191	=191	=191	=191	=191
1C	2c	0E	2e	2r
.	2c	.	2e	2g
1C	2c	.	2e	2g
.	2c	.	2e	2g
=192	=192	=192	=192	=192
1.F	2A	0r	2c	2a
.	1D	.	1d	2a
.	.	.	.	2f
2E	2E	.	[2c	2g
=193	=193	=193	=193	=193
1D	2.F	0r	2c]	2.a
.	.	.	2B	.
.	4G	.	.	8gL
.	.	.	.	8fJ
1C	2A	.	2c	2e
.	[2G	.	2G	2e
=194	=194	=194	=194	=194
2.BB	2G]	1r	2.B	2d
.	4F	.	.	1dd
4AA	4E	.	4c	.
1BB	1D	1G	1d	.
.	.	.	.	2dd
=195	=195	=195	=195	=195
0AA	1E	1A	2r	1cc
.	.	.	2.A	.
.	2r	1F	.	1a
.	.	.	4B	.
.	2A	.	4c	.
.	.	.	4d	.
=196	=196	=196	=196	=196
0r	2G	2E	2e	2r
.	2F	2c	4A	2a
.	.	.	4B	.
.	2.E	2c	4c	2g
.	.	.	4d	.
.	.	2c	2e	[2g
.	4F	.	.	.
=197	=197	=197	=197	=197
0r	2G	2B	2d	2g]
.	2A	1A	2c	2f
.	1E	.	1B	1e
.	.	2G#i	.	.
=198	=198	=198	=198	=198
1r	2r	2A	1A	0e
.	1A	1c	.	.
1C	.	.	1r	.
.	2G	2c	.	.
=199	=199	=199	=199	=199
1D	2F	2B	1d	2r
.	2F	1A	.	2a
1BB	1D	.	2d	2b
.	.	2G#i	2d	2b
=200	=200	=200	=200	=200
2AA	2E	0A	2c	2cc
1F	4D	.	2d	1a
.	4E	.	.	.
.	4F	.	2A	.
.	4G	.	.	.
2F	2A	.	[2c	2f
=201	=201	=201	=201	=201
2E	2G	0r	2c]	2g
1D	2F	.	2d	2d
.	1E	.	1e	1g
2C#i	.	.	.	.
=202	=202	=202	=202	=202
2D	0D	2r	1A	1f
1F	.	2A	.	.
.	.	2A	1d	2r
2F	.	2A	.	2d
=203	=203	=203	=203	=203
2E	1r	2G	2r	2e
1D	.	2A	2A	2f
.	2r	1E	2B	2g
2C#i	2G	.	2c	2e
=204	=204	=204	=204	=204
0D	2F	2r	2A	2d
.	2D	1A	1d	2.f
.	1F	.	.	.
.	.	.	.	4g
.	.	2A	2d	2a
=205	=205	=205	=205	=205
0r	2E	1.c	1e	2g
.	2.A	.	.	1e
.	.	.	1c	.
.	4G	.	.	.
.	4F	2A	.	[2a
.	4E	.	.	.
=206	=206	=206	=206	=206
2r	2F	[0Al	0d	4a]
.	.	.	.	4g
2D	4D	.	.	4f
.	4E	.	.	4e
2D	4F	.	.	2d
.	4G	.	.	.
2D	[2A	.	.	2f
=207	=207	=207	=207	=207
2C	4A]	0A_	2r	2e
.	4G	.	.	.
2D	2F	.	2d	1d
1AA	1E	.	2e	.
.	.	.	2e	2c#i
=208	=208	=208	=208	=208
2r	[0Dl	0A_	1.f	1d
1D	.	.	.	.
.	.	.	.	2r
2D	.	.	2d	2a
=209	=209	=209	=209	=209
1.F	0D_	0A_	[0dl	2f
.	.	.	.	2d
.	.	.	.	1a
2D	.	.	.	.
=210	=210	=210	=210	=210
0Dl	0D]	0A]	0d]	0fl
==	==	==	==	==
*-	*-	*-	*-	*-
!!!system-decoration: s1,s2,s3,s4,s5
!!!RDF**kern: i = editorial accidental
!!!RDF**kern: l = terminal long
!!!ENC: Maura Sugg
!!!END: 2026/6/27
!!!EED: Benjamin Ory
!!!EEV: 2026/06/29
!!!YEC: Copyright 2026 Benjamin Ory, All Rights Reserved
!!!ONB: Translated from MusicXML on 2026/06/29
!!!verovio: header encoded
!!!header-left: Edited by Zoe Saunders (2010)\n
!!!header-right:
!!!header-center:
!!muse2ps: T^@{OPR}^u^@{ONM}{. }@{OTL}^C^@{COM}^i2I150v90,90,90,90,120c120z18l2770t130
